!!! OTL: Berkowitz587
!!! Chapter: 1
!!! Section: V
!!! Page: 147
!!! Mode: 
!!! Encoder: AR
**kern
*staff1
=1-
!!pagebreak:original
*clefG2
*k[]
*C:
*M4/4
4.dd-\
8b-\
[2g/
=2
4g/]
4f#/
4a/
4a-/
=3
4.dd-\
8b-\
2fn/
=4
4r
4dn/
4f#/
4a#/
=5
2dd\
q0.664062cc\
q0.667969a-/
q0.667969e/
=6
2g/
2d/
=7
!!linebreak:original
4.c#/
8e/
4g/
4f/
=8
4.c#/
8f#/
4b\
4r
=9
2b-\
4g/
4e/
=10
2b-\
4f#/
4d/
=11
4a/
4cc\
4.a-/
8e-/
=12
!!linebreak:original
2g-/
4f/
4r
=13
4r
4c/
4e/
4e-/
=14
2.a-/
4g/
=15
[1d
=16
4d/]
4r
2r
==
*-
